static/assets/img/icons/theme/cooking/cooking-pot.svg

<svg height="24" viewBox="0 0 24 24" width="24" xmlns="http://www.w3.org/2000/svg"><g fill="none" fill-rule="evenodd"><path d="m0 0h24v24h-24z" opacity="0"/><g fill="#000"><path d="m10 6v-1c0-.55228475.4477153-1 1-1h2c.5522847 0 1 .44771525 1 1v1h.383822c1.8234474 0 3.6309945.33909803 5.3304559 1l.0874226.03399769c.257366.10008681.3848659.38985955.2847791.64722551-.0747389.19218569-.2597955.3187768-.4660023.3187768h-15.24096301c-.27614237 0-.5-.22385763-.5-.5 0-.2062068.12659111-.39126339.3187768-.46600231l.0874226-.03399769c1.6994614-.66090197 3.50700853-1 5.33045595-1zm10 5h2c.5522847 0 1 .4477153 1 1s-.4477153 1-1 1h-2c-.5522847 0-1-.4477153-1-1s.4477153-1 1-1zm-18 0h2c.55228475 0 1 .4477153 1 1s-.44771525 1-1 1h-2c-.55228475 0-1-.4477153-1-1s.44771525-1 1-1z" opacity=".3"/><path d="m5 9h14c.5522847 0 1 .44771525 1 1v7c0 2.209139-1.790861 4-4 4h-8c-2.209139 0-4-1.790861-4-4v-7c0-.55228475.44771525-1 1-1z"/></g></g></svg>

<svg width="24px" height="24px" viewBox="0 0 24 24" version="1.1" xmlns="http://www.w3.org/2000/svg" xmlns:xlink="http://www.w3.org/1999/xlink">
    <title>Icon For Cooking-pot</title>
    <g stroke="none" stroke-width="1" fill="none" fill-rule="evenodd">
        <rect opacity="0" x="0" y="0" width="24" height="24"></rect>
        <path d="M10,6 L10,5 C10,4.44771525 10.4477153,4 11,4 L13,4 C13.5522847,4 14,4.44771525 14,5 L14,6 L14.383822,6 C16.2072694,6 18.0148165,6.33909803 19.7142779,7 L19.8017005,7.03399769 C20.0590665,7.1340845 20.1865664,7.42385724 20.0864796,7.6812232 C20.0117407,7.87340889 19.8266841,8 19.6204773,8 L4.37951429,8 C4.10337192,8 3.87951429,7.77614237 3.87951429,7.5 C3.87951429,7.2937932 4.0061054,7.10873661 4.19829109,7.03399769 L4.28571369,7 C5.98517509,6.33909803 7.79272222,6 9.61616964,6 L10,6 Z M20,11 L22,11 C22.5522847,11 23,11.4477153 23,12 C23,12.5522847 22.5522847,13 22,13 L20,13 C19.4477153,13 19,12.5522847 19,12 C19,11.4477153 19.4477153,11 20,11 Z M2,11 L4,11 C4.55228475,11 5,11.4477153 5,12 C5,12.5522847 4.55228475,13 4,13 L2,13 C1.44771525,13 1,12.5522847 1,12 C1,11.4477153 1.44771525,11 2,11 Z" fill="#000000" opacity="0.3"></path>
        <path d="M5,9 L19,9 C19.5522847,9 20,9.44771525 20,10 L20,17 C20,19.209139 18.209139,21 16,21 L8,21 C5.790861,21 4,19.209139 4,17 L4,10 C4,9.44771525 4.44771525,9 5,9 Z" fill="#000000"></path>
    </g>
</svg>
